X: 36
T: WIND THAT SHAKES THE BARLEY
R: reel
Z: 2006 John Chambers <jc:trillian.mit.edu>
B: "Rinnci na h-\'Eireann" Elizabeth Burchenal, ed. G.Schirmer (1925) p.120
M: 2/4
L: 1/8
Q: 1/4=112
K: D
|: "D"A2AB AFED | "G"B2BA B2d2 | "D"A2AB AFED |1,3 "G"gfed B2d2 \
                                             :|2,4 "G"gfed Bcd2 :|
|: "D"f2fd "A"g2ge | "D"f2fd "A"ecBA | "D"f2fd "A"g2ge | "D"afed "G"B2"D"d2 \
   "D"f2fd "A"g2ge | "D"f2fd "A"edcA | "D"defg afba | "D"gfed "G"B2"D"d2 :|
